X: 84
T:Highgate Tunnel,1st part. JNu.45
M:6/8
L:1/8
Q:110
S:James Nuttall MS,c1830,Rossendale,East Lancs.
R:Quadrille
O:England
A:East Lancashire
N:Wrongly numbered 44 in MS
Z:vmp.Manchester Morris Men
K:D
"primo"A|FAd f2f|g2e e^de|Ace g2g|f2=d dcd|!
fed dcB|A3 ^Gfe|dcB AB^G|A3 A2:|!
|:A|ABA A=GF|G3 e2G|GAG GFE|F3d2c|!
Bdc efg|ABA def|ged cde|d3 d2:|]
